frontend/public/icons/safari-pinned-tab.svg

<?xml version="1.0" standalone="no"?>
<!DOCTYPE svg PUBLIC "-//W3C//DTD SVG 20010904//EN"
 "http://www.w3.org/TR/2001/REC-SVG-20010904/DTD/svg10.dtd">
<svg width="131" height="131" viewBox="0 0 131 131" fill="none" xmlns="http://www.w3.org/2000/svg">
<path d="M14.41 78.3288L31.4416 95.3374H14.41V78.3288ZM14.41 74.0766L35.6996 95.3374H52.7314L14.41 57.0675V74.0766ZM14.41 52.8153L56.9893 95.3374H74.0206L14.41 35.8067V52.8153ZM35.6996 52.8153L78.2786 95.3374V78.3288L35.6996 35.8067V52.8153ZM56.9893 35.8067V52.8153L78.2786 74.0766V57.0675L56.9893 35.8067Z" fill="black"/>
<path fill-rule="evenodd" clip-rule="evenodd" d="M104.971 83.7239C108.054 86.8024 112.236 88.5342 116.6 88.5342V95.3375H81.2899V60.0749L104.971 83.7239ZM94.9152 85.1321C94.9152 87.011 93.3903 88.5341 91.5092 88.5341C89.6276 88.5341 88.1027 87.011 88.1027 85.1321C88.1027 83.2535 89.6276 81.7304 91.5092 81.7304C93.3903 81.7304 94.9152 83.2535 94.9152 85.1321Z" fill="black"/>
<path d="M14.41 95.3375H31.4416L14.41 78.3289V95.3375Z" fill="black"/>
<path d="M35.6996 57.0675L14.41 35.8067V52.8153L35.6996 74.0766V57.0675Z" fill="black"/>
<path d="M14.41 57.0675V74.0766L35.6996 95.3374V78.3288L14.41 57.0675Z" fill="black"/>
<path d="M56.9894 57.0675L35.6996 35.8067V52.8153L56.9894 74.0766V57.0675Z" fill="black"/>
<path d="M35.6996 95.3375H52.7314L35.6996 78.3289V95.3375Z" fill="black"/>
<path d="M35.6996 57.0675V74.0766L56.9894 95.3374V78.3288L35.6996 57.0675Z" fill="black"/>
</svg>

<svg width="131" height="131" fill="none" xmlns="http://www.w3.org/2000/svg"><path d="m14.41 78.329 17.032 17.008H14.41V78.33zm0-4.252 21.29 21.26H52.73L14.41 57.067v17.01zm0-21.262 42.58 42.522h17.03l-59.61-59.53v17.008zm21.29 0 42.579 42.522V78.33l-42.58-42.522v17.008zm21.29-17.008v17.008l21.289 21.262v-17.01l-21.29-21.26z" fill="#000"/><path fill-rule="evenodd" clip-rule="evenodd" d="M104.971 83.724a16.457 16.457 0 0 0 11.629 4.81v6.803H81.29V60.076l23.681 23.649zm-10.056 1.408a3.404 3.404 0 0 1-3.406 3.402 3.404 3.404 0 0 1-3.406-3.402 3.404 3.404 0 0 1 3.406-3.402 3.404 3.404 0 0 1 3.406 3.402z" fill="#000"/><path d="M14.41 95.338h17.032L14.41 78.328v17.01zM35.7 57.068 14.41 35.806v17.008L35.7 74.077v-17.01zM14.41 57.068v17.009l21.29 21.26V78.33L14.41 57.068zM56.99 57.068 35.7 35.806v17.008l21.29 21.262v-17.01zM35.7 95.338H52.73L35.7 78.328v17.01zM35.7 57.068v17.009l21.29 21.26V78.33L35.7 57.068z" fill="#000"/></svg>
